X:366
T: IM DOERFCHEN WO ICH LEBTE
N: B0434
O: Europa, Mitteleuropa, Deutschland
R: Liebes - Lied, Liebes - Lust
M: 3/4
L: 1/16
K: G
D4 | B3BB4c2F2 | A2G2G4
G4 | c3de6e2 | e2A2A2A2d3c | B4z4
G4 | e6f2gfe^d | e4z4
e4 | e6d2c2B2 | A4z2
e2d3c | B4c4F4 | G4z2
G2G2G2 | e4z4F4 | G4z4

@@@ Tune index: 2169
